src/objects/sound/1F507.svg

<svg id="emoji" viewBox="0 0 72 72" xmlns="http://www.w3.org/2000/svg">
  <g id="grid">
    <path fill="#b3b3b3" d="M68,4V68H4V4H68m4-4H0V72H72V0Z"/>
    <path fill="none" stroke="#00a5ff" stroke-miterlimit="10" stroke-width="0.1" d="M12.923,10.9583H59.0769A1.9231,1.9231,0,0,1,61,12.8814V59.0352a1.9231,1.9231,0,0,1-1.9231,1.9231H12.9231A1.9231,1.9231,0,0,1,11,59.0352V12.8813A1.923,1.923,0,0,1,12.923,10.9583Z"/>
    <rect x="16" y="4" rx="2.2537" width="40" height="64" fill="none" stroke="#00a5ff" stroke-miterlimit="10" stroke-width="0.1"/>
    <rect x="16" y="4" rx="2.2537" width="40" height="64" transform="translate(72) rotate(90)" fill="none" stroke="#00a5ff" stroke-miterlimit="10" stroke-width="0.1"/>
    <circle cx="36" cy="36" r="29" fill="none" stroke="#00a5ff" stroke-miterlimit="10" stroke-width="0.1"/>
  </g>
  <g id="color">
    <path fill="#d0cfce" stroke="#d0cfce" stroke-linecap="round" stroke-linejoin="round" stroke-miterlimit="10" stroke-width="2" d="M33.7701,47.4133l16.436,13.128l-0.001-49.166l-16.435,13.346"/>
    <line x1="33.7149" x2="33.7149" y1="24.8011" y2="46.0511" fill="#d0cfce" stroke="#d0cfce" stroke-linecap="round" stroke-linejoin="round" stroke-miterlimit="10" stroke-width="2"/>
    <path fill="#9b9b9a" stroke="#9b9b9a" stroke-miterlimit="10" stroke-width="1.9381" d="M32.7926,24.7213H20.8553 c-1.554,0.005-2.8125,1.3452-2.8172,3v16.692c0.0047,1.6548,1.2632,2.995,2.8172,3h11.9373"/>
  </g>
  <g id="hair"/>
  <g id="skin"/>
  <g id="skin-shadow"/>
  <g id="line">
    <path fill="none" stroke="#000000" stroke-linecap="round" stroke-linejoin="round" stroke-width="2" d="M50.2195,45.4881 l-0.0007-34.1129l-16.435,13.346h-4.1277"/>
    <path fill="none" stroke="#000000" stroke-linecap="round" stroke-linejoin="round" stroke-width="2" d="M20.2294,24.8434 c-1.2445,0.3664-2.1535,1.5155-2.1576,2.8778v16.692c0.005,1.6548,1.3452,2.995,3,3h12.712l16.436,13.128l-0.0001-5.659"/>
    <line x1="33.7838" x2="33.7838" y1="25.3332" y2="29" fill="none" stroke="#000000" stroke-linecap="round" stroke-linejoin="round" stroke-width="2"/>
    <line x1="33.7838" x2="33.7838" y1="39" y2="47.051" fill="none" stroke="#000000" stroke-linecap="round" stroke-linejoin="round" stroke-width="2"/>
    <path fill="none" stroke="#000000" stroke-linecap="round" stroke-linejoin="round" stroke-width="2" d="M30.1632,28"/>
    <path fill="none" stroke="#000000" stroke-linecap="round" stroke-linejoin="round" stroke-width="2" d="M30.1632,28"/>
    <line x1="11.6048" x2="60.1048" y1="11.7825" y2="60.2825" fill="none" stroke="#000000" stroke-linecap="round" stroke-linejoin="round" stroke-width="2"/>
  </g>
</svg>

<svg viewBox="0 0 72 72" xmlns="http://www.w3.org/2000/svg"><path fill="#b3b3b3" d="M68 4v64H4V4h64m4-4H0v72h72V0z"/><path fill="none" stroke="#00a5ff" stroke-miterlimit="10" stroke-width=".1" d="M12.923 10.958h46.154A1.923 1.923 0 0161 12.881v46.154a1.923 1.923 0 01-1.923 1.923H12.923A1.923 1.923 0 0111 59.035V12.881a1.923 1.923 0 011.923-1.923z"/><rect x="16" y="4" rx="2.254" width="40" height="64" fill="none" stroke="#00a5ff" stroke-miterlimit="10" stroke-width=".1"/><rect x="16" y="4" rx="2.254" width="40" height="64" transform="rotate(90 36 36)" fill="none" stroke="#00a5ff" stroke-miterlimit="10" stroke-width=".1"/><circle cx="36" cy="36" r="29" fill="none" stroke="#00a5ff" stroke-miterlimit="10" stroke-width=".1"/><path d="M50.22 45.488l-.001-34.113-16.435 13.346h-4.128m-9.426.122a3.01 3.01 0 00-2.158 2.878v16.692a3.01 3.01 0 003 3h12.712L50.22 60.541v-5.659M33.784 25.333V29m0 10v8.051M11.605 11.783l48.5 48.499" stroke-linecap="round" stroke-miterlimit="10" stroke-width="6" stroke="#fff" fill="none" stroke-linejoin="round"/><g stroke-miterlimit="10"><path fill="#d0cfce" stroke="#d0cfce" stroke-linecap="round" stroke-linejoin="round" stroke-width="2" d="M33.77 47.413l16.436 13.128V11.375L33.77 24.721m-.055.08v21.25"/><path fill="#9b9b9a" stroke="#9b9b9a" stroke-width="1.938" d="M32.793 24.721H20.855c-1.554.005-2.812 1.345-2.817 3v16.692c.005 1.655 1.263 2.995 2.817 3h11.938"/></g><path d="M50.22 45.488l-.001-34.113-16.435 13.346h-4.128m-9.426.122a3.01 3.01 0 00-2.158 2.878v16.692a3.01 3.01 0 003 3h12.712L50.22 60.541v-5.659M33.784 25.333V29m0 10v8.051M11.605 11.783l48.5 48.499" fill="none" stroke="#000" stroke-linecap="round" stroke-linejoin="round" stroke-width="2"/></svg>
